epam-assets/icon-sources/18/internal-logo/reports.svg

<svg width="18" height="18" viewBox="0 0 18 18" fill="none" xmlns="http://www.w3.org/2000/svg">
<g id="18/internal-logo/reports">
<path id="icon" fill-rule="evenodd" clip-rule="evenodd" d="M11.9519 2.10637C10.9048 1.65593 9.73542 1.43688 8.50828 1.51585C4.77194 1.75608 1.75615 4.77197 1.51582 8.50831C1.43696 9.73534 1.65589 10.9047 2.10634 11.9518C2.21906 12.2139 2.55435 12.3039 2.77737 12.1261C2.87597 12.0474 2.98142 11.9771 3.0927 11.9162C3.28991 11.8083 3.38134 11.571 3.29498 11.3634C2.93432 10.497 2.76469 9.53218 2.84178 8.52056C3.07208 5.50334 5.5033 3.07211 8.52063 2.84182C9.53226 2.76461 10.4971 2.93435 11.3634 3.29502C11.5709 3.38138 11.8083 3.28983 11.9163 3.09274C11.9772 2.98145 12.0475 2.8759 12.1262 2.77729C12.3039 2.55439 12.214 2.21898 11.9519 2.10637ZM6.35293 6.35293C6.35293 5.86564 7.53805 5.47057 9 5.47057C10.462 5.47057 11.6471 5.86564 11.6471 6.35293V7.23528C11.6471 7.72257 10.462 8.11764 9 8.11764C7.53805 8.11764 6.35293 7.72257 6.35293 7.23528V6.35293ZM6.35293 8.11764C6.35293 8.60492 7.53805 9 9 9C10.462 9 11.6471 8.60492 11.6471 8.11764V9.44118C11.6471 9.92846 10.462 10.3235 9 10.3235C7.53805 10.3235 6.35293 9.92846 6.35293 9.44118V8.11764ZM9 11.2059C7.53805 11.2059 6.35293 10.8108 6.35293 10.3235V11.6471C6.35293 12.1344 7.53805 12.5294 9 12.5294C10.462 12.5294 11.6471 12.1344 11.6471 11.6471V10.3235C11.6471 10.8108 10.462 11.2059 9 11.2059ZM11.3625 14.7054C11.57 14.6189 11.8073 14.7081 11.9151 14.9053C11.9763 15.0174 12.047 15.1235 12.1262 15.2229C12.3036 15.4453 12.2148 15.7805 11.9535 15.893C11.0466 16.2833 10.0483 16.5 8.9999 16.5C7.95155 16.5 6.95327 16.2833 6.04643 15.893C5.78514 15.7805 5.69624 15.4453 5.87371 15.2229C5.95279 15.1235 6.0236 15.0174 6.08481 14.9053C6.19246 14.7081 6.42992 14.6189 6.63728 14.7054C7.36544 15.0084 8.1632 15.1765 8.9999 15.1765C9.83659 15.1765 10.6345 15.0084 11.3625 14.7054ZM14.9051 6.08493C15.0174 6.02361 15.1238 5.95291 15.2229 5.8736C15.4454 5.69636 15.7804 5.78504 15.8928 6.04633C16.2832 6.95317 16.5 7.95167 16.5 9.00002C16.5 10.0484 16.2832 11.0468 15.8928 11.9536C15.7804 12.2149 15.4454 12.3037 15.2229 12.1263C15.1238 12.0471 15.0174 11.9763 14.9051 11.915C14.7079 11.8075 14.6189 11.5701 14.7053 11.3628C15.0084 10.6345 15.1765 9.83671 15.1765 9.00002C15.1765 8.16332 15.0084 7.36545 14.7053 6.63728C14.6189 6.42982 14.7079 6.19258 14.9051 6.08493ZM4.14223 12.087C3.16675 12.087 2.37598 12.8778 2.37598 13.8532C2.37598 14.8287 3.16675 15.6195 4.14223 15.6195C5.1177 15.6195 5.90848 14.8287 5.90848 13.8532C5.90848 12.8778 5.1177 12.087 4.14223 12.087ZM12.126 13.8532C12.126 12.8778 12.9168 12.087 13.8922 12.087C14.8677 12.087 15.6585 12.8778 15.6585 13.8532C15.6585 14.8287 14.8677 15.6195 13.8922 15.6195C12.9168 15.6195 12.126 14.8287 12.126 13.8532ZM13.8922 2.33698C12.9168 2.33698 12.126 3.12775 12.126 4.10323C12.126 5.0787 12.9168 5.86948 13.8922 5.86948C14.8677 5.86948 15.6585 5.0787 15.6585 4.10323C15.6585 3.12775 14.8677 2.33698 13.8922 2.33698Z" fill="#6C6F80"/>
</g>
</svg>

<svg xmlns="http://www.w3.org/2000/svg" width="18" height="18" fill="none" viewBox="0 0 18 18">
  <path fill="#6C6F80" fill-rule="evenodd" d="M11.952 2.106a7.47 7.47 0 0 0-3.444-.59c-3.736.24-6.752 3.256-6.992 6.992a7.47 7.47 0 0 0 .59 3.444.438.438 0 0 0 .671.174c.099-.079.204-.149.316-.21a.44.44 0 0 0 .202-.553 6.152 6.152 0 0 1-.453-2.842c.23-3.018 2.661-5.449 5.679-5.68a6.15 6.15 0 0 1 2.842.454.441.441 0 0 0 .553-.202c.061-.112.131-.217.21-.316a.438.438 0 0 0-.174-.67Zm-5.6 4.247c0-.487 1.186-.882 2.648-.882 1.462 0 2.647.395 2.647.882v.882c0 .488-1.185.883-2.647.883-1.462 0-2.647-.395-2.647-.883v-.882Zm0 1.765C6.353 8.605 7.539 9 9 9c1.462 0 2.647-.395 2.647-.882V9.44c0 .487-1.185.882-2.647.882-1.462 0-2.647-.395-2.647-.882V8.118ZM9 11.206c-1.462 0-2.647-.395-2.647-.883v1.324c0 .487 1.185.882 2.647.882 1.462 0 2.647-.395 2.647-.882v-1.324c0 .488-1.185.883-2.647.883Zm2.363 3.5a.44.44 0 0 1 .552.2c.061.111.132.217.211.317a.438.438 0 0 1-.172.67A7.453 7.453 0 0 1 9 16.5a7.452 7.452 0 0 1-2.954-.607.438.438 0 0 1-.172-.67c.079-.1.15-.206.21-.318a.439.439 0 0 1 .553-.2A6.135 6.135 0 0 0 9 15.177a6.14 6.14 0 0 0 2.363-.472Zm3.542-8.621c.112-.061.219-.132.318-.211a.438.438 0 0 1 .67.172c.39.907.607 1.906.607 2.954a7.451 7.451 0 0 1-.607 2.954.438.438 0 0 1-.67.172 2.19 2.19 0 0 0-.318-.211.439.439 0 0 1-.2-.552A6.135 6.135 0 0 0 15.177 9c0-.837-.169-1.635-.472-2.363a.439.439 0 0 1 .2-.552ZM4.142 12.087a1.766 1.766 0 1 0 0 3.532 1.766 1.766 0 0 0 0-3.532Zm7.984 1.766a1.766 1.766 0 1 1 3.533 0 1.766 1.766 0 0 1-3.533 0Zm1.766-11.516a1.766 1.766 0 1 0 0 3.532 1.766 1.766 0 0 0 0-3.532Z" clip-rule="evenodd"/>
</svg>
